assets/kyocera/original.svg

<svg viewBox="0 0 24 24" xmlns="http://www.w3.org/2000/svg" fill="#DF0522"><path d="m9.677 4.645-7.354 7.355v-7.355zm-7.354 14.71h7.355l-7.355-7.355zm7.354 0 7.355-7.355-7.355-7.355zm12-19.355h-7.355l-4.645 4.645h7.355v7.355l4.645-4.645zm-12 19.355 4.646 4.645h7.355v-7.355l-4.646-4.645v7.355z"/></svg>

<svg xmlns="http://www.w3.org/2000/svg" fill="#df0522" viewBox="0 0 24 24"><path d="M9.677 4.645 2.323 12V4.645zm-7.354 14.71h7.355L2.323 12zm7.354 0L17.032 12 9.677 4.645zM21.677 0h-7.355L9.677 4.645h7.355V12l4.645-4.645zm-12 19.355L14.323 24h7.355v-7.355L17.032 12v7.355z"/></svg>
